assets/more-dropdown.svg

<!-- Generated by IcoMoon.io -->
<svg version="1.1" xmlns="http://www.w3.org/2000/svg" width="32" height="32" viewBox="0 0 32 32">
<title>more-dropdown</title>
<path fill="#999" d="M4.999 13c1.656 0 3 1.344 3 3s-1.344 3-3 3c-1.656 0-3-1.344-3-3s1.344-3 3-3zM27.001 13c1.656 0 3 1.344 3 3s-1.344 3-3 3c-1.656 0-3-1.344-3-3s1.344-3 3-3zM15.999 13c1.656 0 3 1.344 3 3s-1.344 3-3 3c-1.656 0-3-1.344-3-3s1.344-3 3-3z"></path>
</svg>

<?xml version="1.0" encoding="UTF-8"?>
<svg width="32px" height="32px" viewBox="0 0 32 32" version="1.1" xmlns="http://www.w3.org/2000/svg" xmlns:xlink="http://www.w3.org/1999/xlink">
    <title>more-dropdown</title>
    <g id="页面-1" stroke="none" stroke-width="1" fill="none" fill-rule="evenodd">
        <g id="画板" transform="translate(-28.000000, -81.000000)">
            <g id="more-dropdown" transform="translate(27.999000, 81.000000)">
                <rect id="矩形" opacity="0" x="0" y="0" width="32" height="32"></rect>
                <path d="M5,13 C6.656,13 8,14.344 8,16 C8,17.656 6.656,19 5,19 C3.344,19 2,17.656 2,16 C2,14.344 3.344,13 5,13 Z M27.002,13 C28.658,13 30.002,14.344 30.002,16 C30.002,17.656 28.658,19 27.002,19 C25.346,19 24.002,17.656 24.002,16 C24.002,14.344 25.346,13 27.002,13 Z M16,13 C17.656,13 19,14.344 19,16 C19,17.656 17.656,19 16,19 C14.344,19 13,17.656 13,16 C13,14.344 14.344,13 16,13 L16,13 Z" id="形状" fill="#000000" fill-rule="nonzero"></path>
            </g>
        </g>
    </g>
</svg>
